X:1
T:The Trooper Watering his Nagg
M:4/4
L:1/8
K:C
 G| cc e2 cc e2| cc e2 d3 G| c3 d e3 d|c-de-f g3| g| g2 G2 G2c-B| A2 F2 A2E-F|\
 G2 EF G2 EF| F2 AB c3||

